X: 31684
T: Parting, The
R: reel
M: 4/4
K: Gmajor
|:D2|GFGA B2g2|f2a2 g2B2|c2ec B2dB|cBAG d2D2|
E2FG FGA2|B2g2 f2B2|c2Bc d2d2|d6:|
d2|g3f g2ab|a2g2 f2B2|e2E2 d2B2|cBAG d2D2|
E2FG FGA2|B2g2 f2B2|c2Bc d2d2|d6 d2|
b3a g2ab|a2g2 f2B2|e2E2 d2B2|cBAG d2D2|
E2FG AGFE|D2g2 e2B2|c2Bc d2d2|d6 z2|

